src/assets/images/landing/2-deco-2.svg

<svg width="355" height="748" viewBox="0 0 355 748" fill="none" xmlns="http://www.w3.org/2000/svg">
<mask id="mask0_1059_22" style="mask-type:alpha" maskUnits="userSpaceOnUse" x="0" y="0" width="355" height="748">
<rect width="355" height="748" fill="#D9D9D9"/>
</mask>
<g mask="url(#mask0_1059_22)">
<path d="M156.465 238.377C152.854 222.3 164.692 204.062 171.062 196.952L240.566 181.338C252.009 194.322 279.953 223.968 292.374 240.435C307.901 261.019 353.718 349.237 383.752 426.927C413.785 504.618 434.043 650.795 425.394 668.292C416.744 685.79 363.243 703.364 320.212 711.549C277.182 719.735 212.747 737.173 184.978 734.893C157.209 732.614 118.423 593.561 120.92 533.746C123.418 473.93 184.021 318.105 184.215 298.434C184.408 278.762 160.98 258.472 156.465 238.377Z" stroke="#D9D9D9" stroke-width="5"/>
<path d="M158.422 140.016L171.099 196.445L239.52 181.075L226.843 124.645L194.396 131.934L158.422 140.016Z" stroke="#81EC40" stroke-width="5"/>
<path d="M115.007 118.277C129.19 120.722 149.73 134.311 158.226 140.8L226.648 125.429C226.467 120.777 227.836 110.269 234.757 105.454C243.408 99.435 259.611 103.946 265.251 84.5249C270.891 65.1042 241.818 56.075 195.181 48.0276C157.872 41.5896 100.869 63.0399 77.0311 74.5697L87.5688 121.477C94.9752 119.813 100.824 115.832 115.007 118.277Z" stroke="#81EC40" stroke-width="5"/>
<path d="M76.5535 75.3326C68.67 79.8205 53.6622 91.5155 56.6985 102.393C59.7348 113.27 78.1725 119.921 87.0119 121.887" stroke="#81EC40" stroke-width="5"/>
<path d="M119.936 149.557C127.758 142.577 134.55 131.586 136.969 126.962C120.247 115.705 105.945 116.433 100.884 118.205C100.329 120.596 99.1581 126.317 98.9099 130.072C98.5996 134.766 72.3915 180.909 69.2309 191.139C66.0702 201.37 63.6193 203.824 72.1975 204.345C80.7757 204.866 87.8221 186.419 95.5162 175.715C103.21 165.01 110.16 158.281 119.936 149.557Z" stroke="#81EC40" stroke-width="5"/>
</g>
</svg>

<svg width="355" height="748" fill="none" xmlns="http://www.w3.org/2000/svg"><mask id="a" style="mask-type:alpha" maskUnits="userSpaceOnUse" x="0" y="0" width="355" height="748"><path fill="#D9D9D9" d="M0 0h355v748H0z"/></mask><g mask="url(#a)" stroke-width="5"><path d="M156.465 238.377c-3.611-16.077 8.227-34.315 14.597-41.425l69.504-15.614c11.443 12.984 39.387 42.63 51.808 59.097 15.527 20.584 61.344 108.802 91.378 186.492 30.033 77.691 50.291 223.868 41.642 241.365-8.65 17.498-62.151 35.072-105.182 43.257-43.03 8.186-107.465 25.624-135.234 23.344-27.769-2.279-66.555-141.332-64.058-201.147 2.498-59.816 63.101-215.641 63.295-235.312.193-19.672-23.235-39.962-27.75-60.057z" stroke="#D9D9D9"/><path d="M158.422 140.016l12.677 56.429 68.421-15.37-12.677-56.43-32.447 7.289-35.974 8.082z" stroke="#81EC40"/><path d="M115.007 118.277c14.183 2.445 34.723 16.034 43.219 22.523l68.422-15.371c-.181-4.652 1.188-15.16 8.109-19.975 8.651-6.019 24.854-1.508 30.494-20.93 5.64-19.42-23.433-28.449-70.07-36.496-37.309-6.438-94.312 15.012-118.15 26.542l10.538 46.907c7.406-1.664 13.255-5.645 27.438-3.2zM76.553 75.333c-7.883 4.487-22.89 16.183-19.854 27.06 3.036 10.877 21.474 17.528 30.313 19.494" stroke="#81EC40"/><path d="M119.936 149.557c7.822-6.98 14.614-17.971 17.033-22.595-16.722-11.257-31.024-10.529-36.085-8.757-.555 2.391-1.726 8.112-1.974 11.867-.31 4.694-26.519 50.837-29.68 61.067-3.16 10.231-5.61 12.685 2.968 13.206 8.578.521 15.624-17.926 23.318-28.63 7.694-10.705 14.644-17.434 24.42-26.158z" stroke="#81EC40"/></g></svg>
